X: 1193
T:Miko Doyle's Slide (A82)
N: page A82
N: hexatonic
M:12/8
L:1/8
R:Slide
F:http://alfwarnock.info/alfs/abc/alfslides.abc	 2013-05-14 203450 UT
K:G
|:"G"B3 "D7/A"BAB "G/B"dBA "G"G2B|ded "G/B"d2B "D7"ded "G"B2A|\
 B2B "Am"BAB "D7"dBA "G"G2B|
[1"Am"ded "D7"B2A "G"G3 G2A:|[2"Am"ded "D7"B2A "G"G3 GBd|:
"G"g3 "D"f3 "C"efe "G/B"d2B|"G"ded "G/B"d2B "D7"ded "G"B2d|\
"Em"g3 "Bm"f3 "C"efe "G/B"d2B|
[1"Am"ded "D7"B2A "G"G3 GBd:|[2 "Am"ded "G"ded "D7"ded "G"ded|
